X: 3179
T: CALTON HILL
Q: "Strathspey."
R: Strathspey.
%R: strathspey
B: James Kerr "Merry Melodies" v.3 p.21 #179
Z: 2016 John Chambers <jc:trillian.mit.edu>
N: The 2nd strain has initial repeat but no final repeat; fixed.
M: C
L: 1/16
K: Bb
uB2 |\
vF3uB dcBA B4 (F3B) | G3c edc=B cG3 G3A |\
B3d c3d Bcde f3b | ge3 c3A B6 :|
|: d2 |\
f3B gfed fB3 B3d | ec3 g3c a3c g3b |\
fB3 d3b bagf edcB | ge3 cA3 B6 :|

%%sep 1 1 500
%%sep 1 1 500

